lib/flags/si-slovenia.svg

<svg xmlns="http://www.w3.org/2000/svg" fill="none" aria-hidden="true" viewBox="0 0 42 30"><g id="Country=SI - Slovenia, Size=sm (36x24)" filter="url(#filter0_dd_91_25135)"><g clip-path="url(#clip0_91_25135)"><g id="flag"><mask id="mask0_91_25135" width="36" height="24" x="3" y="2" maskUnits="userSpaceOnUse" style="mask-type:alpha"><rect id="mask" width="36" height="24" x="3" y="2" fill="white"/></mask><g mask="url(#mask0_91_25135)"><g id="contents"><path id="background" fill="#2E42A5" fill-rule="evenodd" d="M3 2V26H39V2H3Z" clip-rule="evenodd"/><mask id="mask1_91_25135" width="36" height="24" x="3" y="2" maskUnits="userSpaceOnUse" style="mask-type:alpha"><path id="background_2" fill="white" fill-rule="evenodd" d="M3 2V26H39V2H3Z" clip-rule="evenodd"/></mask><g mask="url(#mask1_91_25135)"><path id="top" fill="#F7FCFF" fill-rule="evenodd" d="M3 2V10H39V2H3Z" clip-rule="evenodd"/><path id="bottom" fill="#C51918" fill-rule="evenodd" d="M3 18V26H39V18H3Z" clip-rule="evenodd"/><g id="mark"><path id="Path 267" fill="#2E42A5" fill-rule="evenodd" d="M18.4582 7.03641C18.4582 7.03641 16.0904 6.04248 13.1454 6.04248C10.2003 6.04248 7.83252 7.03641 7.83252 7.03641C7.83252 7.03641 8.09602 11.0311 8.5125 13.1473C8.69032 14.0509 9.54502 15.3687 10.3188 15.9925C11.2008 16.7034 13.1454 17.5457 13.1454 17.5457C13.7081 17.201 14.7603 17.046 16.1051 15.9925C17.45 14.9389 17.7843 13.1473 17.7843 13.1473L18.4582 7.03641Z" clip-rule="evenodd"/><path id="Path 267_2" fill="#C51918" d="M18.145 6.90576L19.1311 7.34348L18.4542 13.3661C18.2171 14.6408 17.6238 15.646 16.6752 16.3892C16.1605 16.7923 15.6582 17.0936 15.1196 17.3439C14.8156 17.4851 13.544 18.0674 13.555 18.0626C13.4276 18.1172 13.331 18.165 13.2525 18.2131L13.1295 18.2884L12.9967 18.2309C11.6796 17.6604 10.4508 16.8927 9.84013 16.4004C9.00653 15.7285 8.12758 14.3534 7.9402 13.4013C7.66002 11.9776 7.40876 10.0167 7.23242 7.34348L8.11825 6.93155C8.29325 9.58463 8.50451 11.6995 8.77963 13.0975C8.94241 13.9246 9.75291 15.1926 10.4923 15.7886C11.0387 16.2291 11.9191 16.7175 13.1295 17.2487C13.2017 17.2111 13.2818 17.1739 13.3733 17.1347C13.3759 17.1336 14.1993 16.8085 14.4854 16.6756C14.9873 16.4423 15.4539 16.1625 15.9342 15.7862C16.7764 15.1265 17.302 14.238 17.5145 13.1094L18.145 6.90576Z"/><path id="Path 268" fill="white" fill-rule="evenodd" d="M9.23535 13.0244C9.23535 13.0244 9.44998 13.6081 9.84677 14.2636C10.4295 14.4002 10.786 14.393 10.8987 14.2809C11.2247 13.9565 12.3846 13.8179 12.6011 14.095C12.7346 14.2659 13.2039 14.3841 13.7171 14.2278L13.6599 14.2368C13.749 14.208 13.9578 14.1344 14.0865 14.089C14.1403 14.0701 14.1801 14.0561 14.1913 14.0523C14.3845 13.9875 14.5264 13.9535 14.6711 13.944C14.8523 13.932 15.0262 13.962 15.2104 14.0399C15.6153 14.2113 16.1149 14.2912 16.4551 14.2393C16.8709 13.5954 17.1675 13.0244 17.1675 13.0244L15.1928 11.3398L14.4079 12.0969L13.1038 10.4443L12.0121 12.0969L11.1749 11.3398L9.23535 13.0244ZM10.377 15.0147C10.2858 14.9055 10.1996 14.7926 10.1187 14.6787C10.6241 14.7606 10.9673 14.7175 11.1582 14.5276C11.2484 14.4379 11.516 14.3509 11.8204 14.3145C11.9623 14.2975 12.0985 14.2933 12.2029 14.3022C12.2508 14.3062 12.2894 14.3129 12.3154 14.3209C12.3238 14.3234 12.3236 14.3231 12.3148 14.312L12.3132 14.31C12.546 14.6058 13.178 14.7644 13.7743 14.5717L13.7171 14.5807C13.8784 14.5366 14.1689 14.4351 14.2733 14.3986L14.3096 14.386C14.4752 14.3304 14.5893 14.3031 14.6957 14.2961C14.8184 14.288 14.9342 14.308 15.0656 14.3636C15.4241 14.5153 15.8409 14.6056 16.2082 14.6079C16.1299 14.7205 16.0491 14.8325 15.9666 14.9412C15.681 15.0002 15.2392 14.9227 14.8828 14.7497C14.7162 14.6689 14.5572 14.6374 14.3913 14.65C14.2601 14.6599 14.133 14.6948 13.9612 14.7609C13.9511 14.7648 13.9158 14.779 13.8683 14.7982C13.756 14.8436 13.5752 14.9167 13.4982 14.9452L13.5628 14.9336C13.1168 15.0865 12.7264 14.9738 12.615 14.8102C12.4161 14.5181 11.3736 14.661 11.0803 14.9956C11.0021 15.0848 10.7662 15.1011 10.377 15.0147ZM10.7651 15.4237C10.787 15.4437 10.8092 15.4635 10.8316 15.4829C11.8477 16.3636 13.1038 16.7952 13.1038 16.7952C13.1038 16.7952 14.5999 16.3928 15.4491 15.5456C15.5215 15.4733 15.5941 15.395 15.6663 15.3122C15.3567 15.2986 15.0163 15.2089 14.7208 15.0655C14.6122 15.0128 14.5187 14.9943 14.4195 15.0018C14.3317 15.0085 14.2357 15.0349 14.0946 15.0891C14.0908 15.0906 14.0816 15.0943 14.0681 15.0997C13.9817 15.1343 13.7194 15.2392 13.5628 15.2866L13.6274 15.275C13.1018 15.4698 12.5438 15.316 12.3261 15.0242C12.3068 15.0175 12.2765 15.0115 12.2382 15.0078C12.1509 14.9993 12.0355 15.0034 11.915 15.0199C11.6567 15.0553 11.4311 15.1395 11.3565 15.2246C11.2311 15.3677 11.0344 15.4309 10.7651 15.4237Z" clip-rule="evenodd"/><path id="Star 5" fill="#FECA00" fill-rule="evenodd" d="M11.0405 7.88629H10.2495L10.863 7.3754L10.2495 6.83555H11.0405L11.3745 6.31152L11.7098 6.83555H12.4995L11.9167 7.34298L12.4342 7.88629H11.7098L11.3745 8.43928L11.0405 7.88629Z" clip-rule="evenodd"/><path id="Star 5_2" fill="#FECA00" fill-rule="evenodd" d="M14.7686 7.88629H13.9775L14.591 7.3754L13.9775 6.83555H14.7686L15.1025 6.31152L15.4379 6.83555H16.2275L15.6447 7.34298L16.1622 7.88629H15.4379L15.1025 8.43928L14.7686 7.88629Z" clip-rule="evenodd"/><path id="Star 5_3" fill="#FECA00" fill-rule="evenodd" d="M12.6753 9.56744H11.8843L12.4978 9.05656L11.8843 8.5167H12.6753L13.0093 7.99268L13.3446 8.5167H14.1343L13.5514 9.02413L14.069 9.56744H13.3446L13.0093 10.1204L12.6753 9.56744Z" clip-rule="evenodd"/></g></g></g></g></g></g></g><defs><filter id="filter0_dd_91_25135" width="42" height="30" x="0" y="0" color-interpolation-filters="sRGB" filterUnits="userSpaceOnUse"><feFlood flood-opacity="0" result="BackgroundImageFix"/><feColorMatrix in="SourceAlpha" result="hardAlpha" values="0 0 0 0 0 0 0 0 0 0 0 0 0 0 0 0 0 0 127 0"/><feOffset dy="1"/><feGaussianBlur stdDeviation="1"/><feColorMatrix values="0 0 0 0 0.0627451 0 0 0 0 0.0941176 0 0 0 0 0.156863 0 0 0 0.06 0"/><feBlend in2="BackgroundImageFix" result="effect1_dropShadow_91_25135"/><feColorMatrix in="SourceAlpha" result="hardAlpha" values="0 0 0 0 0 0 0 0 0 0 0 0 0 0 0 0 0 0 127 0"/><feOffset dy="1"/><feGaussianBlur stdDeviation="1.5"/><feColorMatrix values="0 0 0 0 0.0627451 0 0 0 0 0.0941176 0 0 0 0 0.156863 0 0 0 0.1 0"/><feBlend in2="effect1_dropShadow_91_25135" result="effect2_dropShadow_91_25135"/><feBlend in="SourceGraphic" in2="effect2_dropShadow_91_25135" result="shape"/></filter><clipPath id="clip0_91_25135"><rect width="36" height="24" x="3" y="2" fill="white" rx="2"/></clipPath></defs></svg>

<svg xmlns="http://www.w3.org/2000/svg" fill="none" aria-hidden="true" viewBox="0 0 42 30"><g filter="url(#a)"><g clip-path="url(#b)"><mask id="c" width="36" height="24" x="3" y="2" maskUnits="userSpaceOnUse" style="mask-type:alpha"><path fill="#fff" d="M3 2h36v24H3z"/></mask><g mask="url(#c)"><path fill="#2E42A5" fill-rule="evenodd" d="M3 2v24h36V2H3Z" clip-rule="evenodd"/><mask id="d" width="36" height="24" x="3" y="2" maskUnits="userSpaceOnUse" style="mask-type:alpha"><path fill="#fff" fill-rule="evenodd" d="M3 2v24h36V2H3Z" clip-rule="evenodd"/></mask><g mask="url(#d)"><path fill="#F7FCFF" fill-rule="evenodd" d="M3 2v8h36V2H3Z" clip-rule="evenodd"/><path fill="#C51918" fill-rule="evenodd" d="M3 18v8h36v-8H3Z" clip-rule="evenodd"/><path fill="#2E42A5" fill-rule="evenodd" d="M18.458 7.036s-2.368-.994-5.313-.994-5.312.994-5.312.994.263 3.995.68 6.111c.177.904 1.032 2.222 1.806 2.845.882.711 2.826 1.554 2.826 1.554.563-.345 1.615-.5 2.96-1.553 1.345-1.054 1.68-2.846 1.68-2.846l.673-6.11Z" clip-rule="evenodd"/><path fill="#C51918" d="m18.145 6.906.986.437-.677 6.023c-.237 1.275-.83 2.28-1.779 3.023a7.802 7.802 0 0 1-1.555.955c-.304.141-1.576.723-1.565.719a2.361 2.361 0 0 0-.303.15l-.123.075-.132-.057c-1.317-.57-2.546-1.338-3.157-1.83-.833-.672-1.712-2.048-1.9-3-.28-1.423-.531-3.384-.708-6.058l.886-.411c.175 2.653.387 4.768.662 6.165.162.828.973 2.096 1.712 2.692.547.44 1.427.929 2.637 1.46.073-.038.153-.075.244-.114.003-.001.826-.327 1.112-.46a7.255 7.255 0 0 0 1.45-.889c.841-.66 1.367-1.548 1.58-2.677l.63-6.203Z"/><path fill="#fff" fill-rule="evenodd" d="M9.235 13.024s.215.584.612 1.24c.583.136.939.129 1.052.017.326-.325 1.486-.463 1.702-.186.134.17.603.29 1.116.133l-.057.009c.089-.029.298-.103.426-.148l.105-.037c.193-.064.335-.098.48-.108.181-.012.355.018.54.096.404.171.904.251 1.244.2.416-.645.713-1.216.713-1.216l-1.975-1.684-.785.757-1.304-1.653-1.092 1.653-.837-.757-1.94 1.684Zm1.142 1.99a5.43 5.43 0 0 1-.258-.335c.505.082.848.038 1.04-.151.09-.09.357-.177.661-.213.142-.018.278-.022.383-.013.048.004.086.01.112.019.009.002.009.002 0-.009l-.002-.002c.233.296.865.454 1.461.262l-.057.009c.161-.044.452-.146.556-.182l.037-.013c.165-.056.28-.083.386-.09a.782.782 0 0 1 .37.068c.358.151.775.242 1.142.244a9.93 9.93 0 0 1-.241.333c-.286.06-.728-.018-1.084-.191a.934.934 0 0 0-.492-.1c-.13.01-.258.045-.43.11l-.093.038a13.81 13.81 0 0 1-.37.147l.065-.011c-.446.152-.837.04-.948-.124-.199-.292-1.241-.149-1.535.186-.078.089-.314.105-.703.019Zm.388.41.067.059c1.016.88 2.272 1.312 2.272 1.312s1.496-.402 2.345-1.25c.072-.072.145-.15.217-.233a2.488 2.488 0 0 1-.945-.246.564.564 0 0 0-.302-.064 1.16 1.16 0 0 0-.324.087l-.027.01c-.086.035-.349.14-.505.188l.064-.012c-.525.195-1.083.041-1.3-.25a.406.406 0 0 0-.089-.017 1.464 1.464 0 0 0-.323.012c-.258.035-.484.12-.558.205-.126.143-.323.206-.592.199Z" clip-rule="evenodd"/><path fill="#FECA00" fill-rule="evenodd" d="M11.04 7.886h-.79l.613-.51-.614-.54h.791l.335-.524.335.524h.79l-.583.507.517.543h-.724l-.336.553-.334-.553Zm3.729 0h-.792l.614-.51-.614-.54h.792l.333-.524.336.524h.79l-.583.507.517.543h-.724l-.336.553-.333-.553Zm-2.094 1.681h-.79l.613-.51-.614-.54h.791l.334-.524.336.524h.79l-.584.507.518.543h-.724l-.336.553-.334-.553Z" clip-rule="evenodd"/></g></g></g></g><defs><clipPath id="b"><rect width="36" height="24" x="3" y="2" fill="#fff" rx="2"/></clipPath><filter id="a" width="42" height="30" x="0" y="0" color-interpolation-filters="sRGB" filterUnits="userSpaceOnUse"><feFlood flood-opacity="0" result="BackgroundImageFix"/><feColorMatrix in="SourceAlpha" result="hardAlpha" values="0 0 0 0 0 0 0 0 0 0 0 0 0 0 0 0 0 0 127 0"/><feOffset dy="1"/><feGaussianBlur stdDeviation="1"/><feColorMatrix values="0 0 0 0 0.0627451 0 0 0 0 0.0941176 0 0 0 0 0.156863 0 0 0 0.06 0"/><feBlend in2="BackgroundImageFix" result="effect1_dropShadow_91_25135"/><feColorMatrix in="SourceAlpha" result="hardAlpha" values="0 0 0 0 0 0 0 0 0 0 0 0 0 0 0 0 0 0 127 0"/><feOffset dy="1"/><feGaussianBlur stdDeviation="1.5"/><feColorMatrix values="0 0 0 0 0.0627451 0 0 0 0 0.0941176 0 0 0 0 0.156863 0 0 0 0.1 0"/><feBlend in2="effect1_dropShadow_91_25135" result="effect2_dropShadow_91_25135"/><feBlend in="SourceGraphic" in2="effect2_dropShadow_91_25135" result="shape"/></filter></defs></svg>
